assets/icons/24px/stroke/money-note-24px.svg

<svg width="24" height="24" viewBox="0 0 24 24" fill="none" xmlns="http://www.w3.org/2000/svg">
<path fill-rule="evenodd" clip-rule="evenodd" d="M6.93417 5C6.95604 5 6.97799 5 7 5L17.0658 5C17.9523 4.99995 18.7161 4.99991 19.3278 5.08215C19.9833 5.17028 20.6117 5.36902 21.1213 5.87868C21.631 6.38835 21.8297 7.0167 21.9179 7.67221C22.0001 8.28388 22.0001 9.0477 22 9.9342V14.0658C22.0001 14.9523 22.0001 15.7161 21.9179 16.3278C21.8297 16.9833 21.631 17.6117 21.1213 18.1213C20.6117 18.631 19.9833 18.8297 19.3278 18.9179C18.7161 19.0001 17.9523 19.0001 17.0658 19H6.93417C6.04769 19.0001 5.28387 19.0001 4.67221 18.9179C4.0167 18.8297 3.38835 18.631 2.87868 18.1213C2.36902 17.6117 2.17028 16.9833 2.08215 16.3278C1.99991 15.7161 1.99995 14.9523 2 14.0658L2 10C2 9.97799 2 9.95604 2 9.93417C1.99995 9.04769 1.99991 8.28387 2.08215 7.67221C2.17028 7.0167 2.36902 6.38835 2.87868 5.87868C3.38835 5.36902 4.0167 5.17028 4.67221 5.08215C5.28387 4.99991 6.04769 4.99995 6.93417 5ZM4.93871 7.06431C4.50497 7.12263 4.36902 7.21677 4.2929 7.2929C4.21677 7.36902 4.12263 7.50497 4.06431 7.93871C4.00213 8.40121 4 9.02893 4 10V14C4 14.9711 4.00213 15.5988 4.06431 16.0613C4.12263 16.495 4.21677 16.631 4.2929 16.7071C4.36902 16.7832 4.50497 16.8774 4.93871 16.9357C5.40121 16.9979 6.02893 17 7 17H17C17.9711 17 18.5988 16.9979 19.0613 16.9357C19.495 16.8774 19.631 16.7832 19.7071 16.7071C19.7832 16.631 19.8774 16.495 19.9357 16.0613C19.9979 15.5988 20 14.9711 20 14V10C20 9.02893 19.9979 8.40122 19.9357 7.93871C19.8774 7.50497 19.7832 7.36902 19.7071 7.2929C19.631 7.21677 19.495 7.12263 19.0613 7.06431C18.5988 7.00213 17.9711 7 17 7H7C6.02893 7 5.40122 7.00213 4.93871 7.06431Z" fill="white"/>
<path fill-rule="evenodd" clip-rule="evenodd" d="M6.29289 15.7071C5.87991 15.2941 5.17919 15 4 15V13C5.48748 13 6.78676 13.3725 7.70711 14.2929C8.62745 15.2132 9 16.5125 9 18H7C7 16.8208 6.70588 16.1201 6.29289 15.7071Z" fill="white"/>
<path fill-rule="evenodd" clip-rule="evenodd" d="M6.29289 8.29289C6.70588 7.87991 7 7.17919 7 6L9 6C9 7.48748 8.62745 8.78676 7.70711 9.70711C6.78676 10.6275 5.48748 11 4 11L4 9C5.17919 9 5.87991 8.70588 6.29289 8.29289Z" fill="white"/>
<path fill-rule="evenodd" clip-rule="evenodd" d="M17.7071 8.29289C18.1201 8.70588 18.8208 9 20 9L20 11C18.5125 11 17.2132 10.6275 16.2929 9.70711C15.3725 8.78676 15 7.48748 15 6L17 6C17 7.17919 17.2941 7.87991 17.7071 8.29289Z" fill="white"/>
<path fill-rule="evenodd" clip-rule="evenodd" d="M17.7071 15.7071C17.2941 16.1201 17 16.8208 17 18L15 18C15 16.5125 15.3725 15.2132 16.2929 14.2929C17.2132 13.3725 18.5125 13 20 13L20 15C18.8208 15 18.1201 15.2941 17.7071 15.7071Z" fill="white"/>
<path fill-rule="evenodd" clip-rule="evenodd" d="M12 11C11.4477 11 11 11.4477 11 12C11 12.5523 11.4477 13 12 13C12.5523 13 13 12.5523 13 12C13 11.4477 12.5523 11 12 11ZM9 12C9 10.3431 10.3431 9 12 9C13.6569 9 15 10.3431 15 12C15 13.6569 13.6569 15 12 15C10.3431 15 9 13.6569 9 12Z" fill="white"/>
</svg>

<svg width="24" height="24" fill="none" xmlns="http://www.w3.org/2000/svg"><path fill-rule="evenodd" clip-rule="evenodd" d="M6.934 5H17.066c.886 0 1.65 0 2.262.082.655.088 1.284.287 1.793.797.51.51.709 1.138.797 1.793C22 8.284 22 9.048 22 9.934v4.132c0 .886 0 1.65-.082 2.262-.088.655-.287 1.284-.797 1.793-.51.51-1.138.709-1.793.797-.612.082-1.376.082-2.262.082H6.934c-.886 0-1.65 0-2.262-.082-.655-.088-1.284-.287-1.793-.797-.51-.51-.709-1.138-.797-1.793C2 15.716 2 14.952 2 14.066V10v-.066c0-.886 0-1.65.082-2.262.088-.655.287-1.284.797-1.793.51-.51 1.138-.709 1.793-.797C5.284 5 6.048 5 6.934 5zM4.94 7.064c-.434.059-.57.153-.646.229-.076.076-.17.212-.229.646C4.002 8.4 4 9.029 4 10v4c0 .971.002 1.599.064 2.061.059.434.153.57.229.646.076.076.212.17.646.229C5.4 16.998 6.029 17 7 17h10c.971 0 1.599-.002 2.061-.064.434-.059.57-.153.646-.229.076-.076.17-.212.229-.646.062-.462.064-1.09.064-2.061v-4c0-.971-.002-1.599-.064-2.061-.059-.434-.153-.57-.229-.646-.076-.076-.212-.17-.646-.229C18.6 7.002 17.971 7 17 7H7c-.971 0-1.599.002-2.061.064z" fill="#fff"/><path fill-rule="evenodd" clip-rule="evenodd" d="M6.293 15.707C5.88 15.294 5.179 15 4 15v-2c1.487 0 2.787.373 3.707 1.293C8.627 15.213 9 16.513 9 18H7c0-1.18-.294-1.88-.707-2.293zm0-7.414C6.706 7.88 7 7.179 7 6h2c0 1.487-.373 2.787-1.293 3.707C6.787 10.627 5.487 11 4 11V9c1.18 0 1.88-.294 2.293-.707zm11.414 0C18.12 8.706 18.821 9 20 9v2c-1.488 0-2.787-.373-3.707-1.293C15.373 8.787 15 7.487 15 6h2c0 1.18.294 1.88.707 2.293zm0 7.414C17.294 16.12 17 16.821 17 18h-2c0-1.488.373-2.787 1.293-3.707.92-.92 2.22-1.293 3.707-1.293v2c-1.18 0-1.88.294-2.293.707zM12 11a1 1 0 1 0 0 2 1 1 0 0 0 0-2zm-3 1a3 3 0 1 1 6 0 3 3 0 0 1-6 0z" fill="#fff"/></svg>
